packages/san-cli-ui/client/assets/folder-icon.svg

<?xml version="1.0" encoding="UTF-8"?>
<svg width="32px" height="28px" viewBox="0 0 32 28" version="1.1" xmlns="http://www.w3.org/2000/svg" xmlns:xlink="http://www.w3.org/1999/xlink">
    <title>编组 14</title>
    <g id="页面-1" stroke="none" stroke-width="1" fill="none" fill-rule="evenodd">
        <g id="1.1创建项目-目录" transform="translate(-186.000000, -202.000000)">
            <g id="编组-14" transform="translate(186.000000, 202.000000)">
                <path d="M5.87073687,-2.36586109e-13 L9.36492074,-2.3910816e-13 C10.583458,-2.35691361e-13 10.9957684,0.0343916227 11.455572,0.123651436 C11.9153756,0.21291125 12.3231998,0.357039255 12.7369852,0.576512019 C13.1507706,0.795984783 13.4931334,1.02830009 14.4410837,1.79395224 L16.7589163,3.66604776 C17.7068666,4.43169991 18.0492294,4.66401522 18.4630148,4.88348798 C18.8768002,5.10296075 19.2846244,5.24708875 19.744428,5.33634856 C20.2042316,5.42560838 20.616542,5.46 21.8350793,5.46 L27.8669492,5.46 C29.0259236,5.46 29.4461957,5.58067329 29.8698994,5.80727251 C30.2936031,6.03387174 30.6261283,6.36639688 30.8527275,6.79010059 C31.0793267,7.21380429 31.2,7.6340764 31.2,8.79305076 L31.2,20.5338985 C31.2,22.8518472 30.9586534,23.6923914 30.505455,24.5397988 C30.0522565,25.3872062 29.3872062,26.0522565 28.5397988,26.505455 C27.6923914,26.9586534 26.8518472,27.2 24.5338985,27.2 L6.66610152,27.2 C4.3481528,27.2 3.50760858,26.9586534 2.66020117,26.505455 C1.81279376,26.0522565 1.14774347,25.3872062 0.69454503,24.5397988 C0.241346589,23.6923914 3.62744565e-13,22.8518472 3.61743833e-13,20.5338985 L3.62458937e-13,5.87073687 C3.62291955e-13,4.50722573 0.241346589,3.50760858 0.69454503,2.66020117 C1.14774347,1.81279376 1.81279376,1.14774347 2.66020117,0.69454503 C3.50760858,0.241346589 4.50722573,-2.35913947e-13 5.87073687,-2.36586109e-13 Z" id="矩形备份" fill="#E6AF40"></path>
                <path d="M6.409713,3.2 L24.790287,3.2 C27.0190838,3.2 27.8272994,3.43206403 28.6421143,3.86783176 C29.4569291,4.30359949 30.0964005,4.94307093 30.5321682,5.75788574 C30.967936,6.57270056 31.2,7.38091615 31.2,9.609713 L31.2,20.790287 C31.2,23.0190838 30.967936,23.8272994 30.5321682,24.6421143 C30.0964005,25.4569291 29.4569291,26.0964005 28.6421143,26.5321682 C27.8272994,26.967936 27.0190838,27.2 24.790287,27.2 L6.409713,27.2 C4.18091615,27.2 3.37270056,26.967936 2.55788574,26.5321682 C1.74307093,26.0964005 1.10359949,25.4569291 0.667831759,24.6421143 C0.232064028,23.8272994 3.62477104e-13,23.0190838 3.62204155e-13,20.790287 L3.62549435e-13,9.609713 C3.62276486e-13,7.38091615 0.232064028,6.57270056 0.667831759,5.75788574 C1.10359949,4.94307093 1.74307093,4.30359949 2.55788574,3.86783176 C3.37270056,3.43206403 4.18091615,3.2 6.409713,3.2 Z" id="矩形" fill="#FCCE72"></path>
            </g>
        </g>
    </g>
</svg>

<svg width="32" height="28" xmlns="http://www.w3.org/2000/svg"><g fill="none" fill-rule="evenodd"><path d="M5.87 0h3.495c1.218 0 1.63.034 2.09.124.46.089.868.233 1.282.453.414.219.756.451 1.704 1.217l2.318 1.872c.948.766 1.29.998 1.704 1.217.414.22.822.364 1.281.453.46.09.873.124 2.091.124h6.032c1.159 0 1.58.12 2.003.347.424.227.756.56.983.983.226.424.347.844.347 2.003v11.74c0 2.319-.241 3.16-.695 4.007a4.725 4.725 0 01-1.965 1.965c-.848.454-1.688.695-4.006.695H6.666c-2.318 0-3.158-.241-4.006-.695A4.725 4.725 0 01.695 24.54C.24 23.692 0 22.852 0 20.534V5.87c0-1.364.241-2.363.695-3.21A4.725 4.725 0 012.66.694C3.508.24 4.507 0 5.87 0z" fill="#E6AF40"/><path d="M6.41 3.2h18.38c2.23 0 3.037.232 3.852.668a4.543 4.543 0 011.89 1.89c.436.815.668 1.623.668 3.852v11.18c0 2.23-.232 3.037-.668 3.852a4.543 4.543 0 01-1.89 1.89c-.815.436-1.623.668-3.852.668H6.41c-2.23 0-3.037-.232-3.852-.668a4.543 4.543 0 01-1.89-1.89C.232 23.827 0 23.02 0 20.79V9.61c0-2.23.232-3.037.668-3.852a4.543 4.543 0 011.89-1.89C3.373 3.432 4.18 3.2 6.41 3.2z" fill="#FCCE72"/></g></svg>
